X: 6
T:Dan Lowry's Hornpipe (#311)
M:4/4
L:1/8
S:Joseph P. Tamony, San Francisco
R:Hornpipe
K:D
sFEs|D2 FA dAFD|CDEF G2 sFEs|D2 (3FGA d2 cd|edcB (3ABA (3GFE|
D2 sFAs dAFD|CDEF G2 sFGs|AdcB (3ABA (3GFE|D2 F2 D2:|
|:de|fdfg fedc|BABc B2 cd|edef edcB|(3AAA ce f2 (3ABc|
dcde fdAF|EDEF G2 FG|AdcB (3ABA (3GFE|D2 F2 D2:||
%
% Dan Lowry was a Dublin theatrical man.

